source/images/icons/social/twitter.svg

<?xml version="1.0" encoding="UTF-8"?>
<svg width="24px" height="24px" viewBox="0 0 24 24" version="1.1" xmlns="http://www.w3.org/2000/svg" xmlns:xlink="http://www.w3.org/1999/xlink">
    <!-- Generator: Sketch 41.2 (35397) - http://www.bohemiancoding.com/sketch -->
    <title>twitter</title>
    <desc>Created with Sketch.</desc>
    <defs></defs>
    <g id="Landing-page" stroke="none" stroke-width="1" fill="none" fill-rule="evenodd">
        <g id="twitter" fill="#FFFFFF">
            <path d="M12,22.8 C17.9646753,22.8 22.8,17.9646753 22.8,12 C22.8,6.0353247 17.9646753,1.2 12,1.2 C6.0353247,1.2 1.2,6.0353247 1.2,12 C1.2,17.9646753 6.0353247,22.8 12,22.8 Z M12,24 C5.372583,24 0,18.627417 0,12 C0,5.372583 5.372583,0 12,0 C18.627417,0 24,5.372583 24,12 C24,18.627417 18.627417,24 12,24 Z" id="Combined-Shape"></path>
            <path d="M19.2,7.5342 C18.6702,7.7694 18.1008,7.9278 17.5032,7.9992 C18.1134,7.6338 18.582,7.0548 18.8022,6.3648 C18.2316,6.7032 17.5992,6.9492 16.926,7.0818 C16.3878,6.5076 15.6192,6.1488 14.7696,6.1488 C12.8622,6.1488 11.4606,7.9284 11.8914,9.7758 C9.4368,9.6528 7.26,8.4768 5.8026,6.6894 C5.0286,8.0172 5.4012,9.7542 6.7164,10.6338 C6.2328,10.6182 5.7768,10.4856 5.379,10.2642 C5.3466,11.6328 6.3276,12.9132 7.7484,13.1982 C7.3326,13.311 6.8772,13.3374 6.414,13.2486 C6.7896,14.4222 7.8804,15.276 9.174,15.3 C7.932,16.2738 6.3672,16.7088 4.8,16.524 C6.1074,17.3622 7.6608,17.8512 9.3288,17.8512 C14.814,17.8512 17.913,13.2186 17.7258,9.0636 C18.303,8.6466 18.804,8.1264 19.2,7.5342 L19.2,7.5342 Z" id="Shape"></path>
        </g>
    </g>
</svg>

<svg width="24" height="24" viewBox="0 0 24 24" xmlns="http://www.w3.org/2000/svg"><title>twitter</title><g fill="#FFF" fill-rule="evenodd"><path d="M12 22.8c5.965 0 10.8-4.835 10.8-10.8 0-5.965-4.835-10.8-10.8-10.8C6.035 1.2 1.2 6.035 1.2 12c0 5.965 4.835 10.8 10.8 10.8zm0 1.2C5.373 24 0 18.627 0 12S5.373 0 12 0s12 5.373 12 12-5.373 12-12 12z"/><path d="M19.2 7.534c-.53.235-1.1.394-1.697.465a2.96 2.96 0 0 0 1.3-1.634 5.918 5.918 0 0 1-1.877.717 2.957 2.957 0 0 0-5.035 2.694 8.387 8.387 0 0 1-6.088-3.087 2.958 2.958 0 0 0 .913 3.945 2.942 2.942 0 0 1-1.337-.37c-.032 1.369.949 2.65 2.37 2.934-.416.113-.872.14-1.335.05a2.957 2.957 0 0 0 2.76 2.052A5.94 5.94 0 0 1 4.8 16.524a8.363 8.363 0 0 0 4.529 1.327c5.485 0 8.584-4.632 8.397-8.787a6.015 6.015 0 0 0 1.474-1.53z"/></g></svg>
